src/assets/images/link.svg

<svg width="24" height="24" viewBox="0 0 24 24" fill="none" xmlns="http://www.w3.org/2000/svg">
<path d="M9.33333 4V6.66667H2.66667V21.3333H17.3333V14.6667H20V22.6667C20 23.0203 19.8595 23.3594 19.6095 23.6095C19.3594 23.8595 19.0203 24 18.6667 24H1.33333C0.979711 24 0.640573 23.8595 0.390524 23.6095C0.140476 23.3594 0 23.0203 0 22.6667V5.33333C0 4.97971 0.140476 4.64057 0.390524 4.39052C0.640573 4.14048 0.979711 4 1.33333 4H9.33333ZM24 0V12L18.9413 6.94267L10.9427 14.9427L9.05733 13.0573L17.056 5.05733L12 0H24Z" fill="white"/>
</svg>

<svg width="24" height="24" fill="none" xmlns="http://www.w3.org/2000/svg"><path d="M9.333 4v2.667H2.667v14.666h14.666v-6.666H20v8A1.334 1.334 0 0 1 18.667 24H1.333A1.334 1.334 0 0 1 0 22.667V5.333A1.333 1.333 0 0 1 1.333 4h8ZM24 0v12l-5.059-5.057-7.998 8-1.886-1.886 7.999-8L12 0h12Z" fill="#fff"/></svg>
